resources/dark/remove_note.svg

<?xml version="1.0" encoding="UTF-8" standalone="no"?>
<svg
   xmlns:dc="http://purl.org/dc/elements/1.1/"
   xmlns:cc="http://creativecommons.org/ns#"
   xmlns:rdf="http://www.w3.org/1999/02/22-rdf-syntax-ns#"
   xmlns:svg="http://www.w3.org/2000/svg"
   xmlns="http://www.w3.org/2000/svg"
   xmlns:sodipodi="http://sodipodi.sourceforge.net/DTD/sodipodi-0.dtd"
   xmlns:inkscape="http://www.inkscape.org/namespaces/inkscape"
   width="16"
   height="16"
   viewBox="0 0 16 16"
   id="svg2"
   version="1.1"
   inkscape:version="0.91 r13725"
   sodipodi:docname="remove_note.svg">
  <metadata
     id="metadata12">
    <rdf:RDF>
      <cc:Work
         rdf:about="">
        <dc:format>image/svg+xml</dc:format>
        <dc:type
           rdf:resource="http://purl.org/dc/dcmitype/StillImage" />
        <dc:title />
      </cc:Work>
    </rdf:RDF>
  </metadata>
  <defs
     id="defs10" />
  <sodipodi:namedview
     pagecolor="#ffffff"
     bordercolor="#666666"
     borderopacity="1"
     objecttolerance="10"
     gridtolerance="10"
     guidetolerance="10"
     inkscape:pageopacity="0"
     inkscape:pageshadow="2"
     inkscape:window-width="1312"
     inkscape:window-height="993"
     id="namedview8"
     showgrid="true"
     inkscape:object-nodes="true"
     inkscape:zoom="44.037039"
     inkscape:cx="2.5475193"
     inkscape:cy="7.7740454"
     inkscape:window-x="1330"
     inkscape:window-y="282"
     inkscape:window-maximized="0"
     inkscape:current-layer="svg2"
     inkscape:snap-smooth-nodes="true">
    <inkscape:grid
       type="xygrid"
       id="grid4140"
       originx="0.5"
       originy="0.5" />
  </sodipodi:namedview>
  <path
     d="m 0,-8 c 5.6568542,-5.656854 18.343146,-5.656854 24,0 5.656854,5.6568542 5.656854,18.343146 0,24 C 18.343146,21.656854 5.6568542,21.656854 0,16 -5.6568542,10.343146 -5.6568542,-2.3431458 0,-8 Z"
     id="path4"
     inkscape:connector-curvature="0"
     style="fill:none"
     sodipodi:nodetypes="sssss" />
  <path
     d="m 10.5,0.5 -9,0 0,15 12,0 0,-12 z m -2,5 0,-4 4,4 z"
     id="path6"
     inkscape:connector-curvature="0"
     style="fill:#aeb9bc;fill-opacity:1;stroke:#545454;stroke-width:1;stroke-miterlimit:4;stroke-dasharray:none;stroke-opacity:1"
     sodipodi:nodetypes="cccccccccc" />
  <path
     style="fill:#ff5c6f;fill-opacity:1;fill-rule:evenodd;stroke:#892a00;stroke-width:1;stroke-linecap:butt;stroke-linejoin:miter;stroke-miterlimit:4;stroke-dasharray:none;stroke-opacity:1"
     d="M 4.6715729,11.914214 6.0857864,10.5 4.6715729,9.0857864 6.0857864,7.6715729 7.5,9.0857864 8.9142136,7.6715729 10.328427,9.0857864 8.9142136,10.5 10.328427,11.914214 8.9142136,13.328427 7.5,11.914214 6.0857864,13.328427 Z"
     id="path4142"
     inkscape:connector-curvature="0"
     sodipodi:nodetypes="ccccccccccccc" />
</svg>

<?xml version="1.0" encoding="UTF-8"?>
<svg width="16" height="16" version="1.1" viewBox="0 0 16 16" xmlns="http://www.w3.org/2000/svg" xmlns:cc="http://creativecommons.org/ns#" xmlns:dc="http://purl.org/dc/elements/1.1/" xmlns:rdf="http://www.w3.org/1999/02/22-rdf-syntax-ns#">
 <metadata>
  <rdf:RDF>
   <cc:Work rdf:about="">
    <dc:format>image/svg+xml</dc:format>
    <dc:type rdf:resource="http://purl.org/dc/dcmitype/StillImage"/>
    <dc:title/>
   </cc:Work>
  </rdf:RDF>
 </metadata>
 <path d="m0-8c5.6569-5.6569 18.343-5.6569 24 0 5.6569 5.6569 5.6569 18.343 0 24s-18.343 5.6569-24 0-5.6569-18.343 0-24z" fill="none"/>
 <path d="m10.5 0.5h-9v15h12v-12zm-2 5v-4l4 4z" fill="#aeb9bc" stroke="#545454"/>
 <path d="m4.6716 11.914 1.4142-1.4142-1.4142-1.4142 1.4142-1.4142 1.4142 1.4142 1.4142-1.4142 1.4142 1.4142-1.4142 1.4142 1.4142 1.4142-1.4142 1.4142-1.4142-1.4142-1.4142 1.4142z" fill="#ff5c6f" fill-rule="evenodd" stroke="#892a00"/>
</svg>
